X:311
T:Golden Age.
C:John Malchair's Third Collection of Tunes
F:https://www.vwml.org/record/Malchair/3619/p31
F:www.vwml.org/topics/historic-dance-and-tune-books/Malchair
Z:Eric Conrad Jan 2020
N:NB1 No repeats in MS.  Assuming parts are repeated.
N:NB2 The MS has mensuration clef inverted alla breve (modern: 2/4 time).
N:  == This is inconsistent with notes and barring in the MS; probable use to indicate fast tempo.
N:  == For consistency, we change note length -- notes here have half of length as given in MS.
N:  == Also note that the inverted alla breve symbol in not available in ABC notation.
M:2/4 % MS has inverted alla breve (2/4), see notes
L:1/16 % corresponding to default 1/8 in MS
K:Am
P:A
|: "_NB1,2"AB | c2e2 A2a2 | ^g2b2 e2dc | B2c2 d2eB | c2 A4 cB |
c2e2 A2c2 | B2d2 G2g2 | (ag)(fe) (de)(fg) | e2 c4 :|
P:B
|: cd | e2g2 c2e2 | g2c2 B2e2 | A2a^g a2ba | =g2 e4 ef |
g2B2 c2e2 | f2A2 ^G2B2 | e2dc B2cd | c2 A4 :|

